icons/jenkins.svg

<svg xmlns="http://www.w3.org/2000/svg" viewBox="0 0 16 16"><path fill="#d24a39" d="M8.129 6.775c-.057.618.089.818.212 1.525 2.029.637 1.674-2.78-.212-1.525M5.882 6.04c-.875-.479-2.188-.995-3.313-1.211-1.398-.266-1.268 1.908-1.208 3.205.048 1.027.581 2.114.812 2.795.108.321.133.657.406.72.481.111 2.07-.523 2.523-.77.957-.523 1.699-1.351 2.513-1.909.01-.269.023-.542.032-.811a4.3 4.3 0 0 0-1.772-.447c.488-.244 1.205-.241 1.645-.532l.013-.324c-.808-.066-1.116-.424-1.651-.716m8.783 1.315c-.038-.817-.254-2.497-.761-2.792-1.062-.618-2.948 1.249-3.746 1.534.085.25.231.447.24.767a2.27 2.27 0 0 1 1.459.165c-.473.054-.999.051-1.313.276-.114.332.029.783-.047 1.245 1.125.317 2.409.485 3.829.527.279-.359.374-1.043.339-1.722" data-iconColor="Jenkins"/></svg>

<!--
  - The MIT License (MIT)
  -
  - Copyright (c) 2015-2024 Elior "Mallowigi" Boukhobza
  -
  - Permission is hereby granted, free of charge, to any person obtaining a copy
  - of this software and associated documentation files (the "Software"), to deal
  - in the Software without restriction, including without limitation the rights
  - to use, copy, modify, merge, publish, distribute, sublicense, and/or sell
  - copies of the Software, and to permit persons to whom the Software is
  - furnished to do so, subject to the following conditions:
  -
  - The above copyright notice and this permission notice shall be included in all
  - copies or substantial portions of the Software.
  -
  - THE SOFTWARE IS PROVIDED "AS IS", WITHOUT WARRANTY OF ANY KIND, EXPRESS OR
  - IMPLIED, INCLUDING BUT NOT LIMITED TO THE WARRANTIES OF MERCHANTABILITY,
  - FITNESS FOR A PARTICULAR PURPOSE AND NONINFRINGEMENT. IN NO EVENT SHALL THE
  - AUTHORS OR COPYRIGHT HOLDERS BE LIABLE FOR ANY CLAIM, DAMAGES OR OTHER
  - LIABILITY, WHETHER IN AN ACTION OF CONTRACT, TORT OR OTHERWISE, ARISING FROM,
  - OUT OF OR IN CONNECTION WITH THE SOFTWARE OR THE USE OR OTHER DEALINGS IN THE
  - SOFTWARE.
  -
  -->

<svg xmlns="http://www.w3.org/2000/svg" viewBox="0 0 16 16" width="16px" height="16px">
  <g fill="#D24A39" data-iconColor="Jenkins">
    <path
        d=" M 8.129 6.775 C 8.072 7.393 8.218 7.593 8.341 8.3 C 10.37 8.937 10.015 5.52 8.129 6.775 L 8.129 6.775 L 8.129 6.775 L 8.129 6.775 L 8.129 6.775 L 8.129 6.775 Z  M 5.882 6.04 C 5.007 5.561 3.694 5.045 2.569 4.829 C 1.171 4.563 1.301 6.737 1.361 8.034 C 1.409 9.061 1.942 10.148 2.173 10.829 C 2.281 11.15 2.306 11.486 2.579 11.549 C 3.06 11.66 4.649 11.026 5.102 10.779 C 6.059 10.256 6.801 9.428 7.615 8.87 C 7.625 8.601 7.638 8.328 7.647 8.059 C 7.159 7.815 6.595 7.644 5.875 7.612 C 6.363 7.368 7.08 7.371 7.52 7.08 C 7.523 6.972 7.53 6.864 7.533 6.756 C 6.725 6.69 6.417 6.332 5.882 6.04 L 5.882 6.04 L 5.882 6.04 L 5.882 6.04 L 5.882 6.04 L 5.882 6.04 Z  M 14.665 7.355 C 14.627 6.538 14.411 4.858 13.904 4.563 C 12.842 3.945 10.956 5.812 10.158 6.097 C 10.243 6.347 10.389 6.544 10.398 6.864 C 10.871 6.747 11.448 6.826 11.857 7.029 C 11.384 7.083 10.858 7.08 10.544 7.305 C 10.43 7.637 10.573 8.088 10.497 8.55 C 11.622 8.867 12.906 9.035 14.326 9.077 C 14.605 8.718 14.7 8.034 14.665 7.355 L 14.665 7.355 L 14.665 7.355 L 14.665 7.355 L 14.665 7.355 L 14.665 7.355 Z "
        stroke-width="0.3" stroke-miterlimit="4"/>
  </g>
</svg>
